packages/ui-icons/src/Basic/24/Cargoes_24.svg

<svg xmlns="http://www.w3.org/2000/svg" viewBox="0 0 32 32"><path d="M5 28h22v-9h-4.14l-4.36-4.4a4 4 0 0 0-1.5-7V6h3V4h-8v2h3v3.5h1a2 2 0 1 1-2 2h-2a4 4 0 0 0 1.53 3.12L9.51 19H5Zm10.49-12.55a3.94 3.94 0 0 0 .51.05 3.94 3.94 0 0 0 .53-.05L20 19h-7.77ZM7 21h18v5H7Z"/></svg>

<svg id="Ready" xmlns="http://www.w3.org/2000/svg" viewBox="0 0 32 32"><title>Megaicons_work_24_1.8_cp</title><path d="M5,28H27V19H22.86L18.5,14.6a4,4,0,0,0-1.5-7V6h3V4H12V6h3V9.5h1a2,2,0,1,1-2,2H12a4,4,0,0,0,1.53,3.12L9.51,19H5ZM15.49,15.45a3.94,3.94,0,0,0,.51.05,3.94,3.94,0,0,0,.53-.05L20,19H12.23ZM7,21H25v5H7Z"/></svg>
